assets/1. 1-F/Chair/Color/Chair-color.svg

<svg width="100%" height="100%" viewBox="0 0 32 32" fill="none" xmlns="http://www.w3.org/2000/svg">
<rect x="11.0566" y="7.86719" width="1.92969" height="7.34375" fill="url(#paint0_linear_18_25742)"/>
<rect x="11.0566" y="7.86719" width="1.92969" height="7.34375" fill="url(#paint1_linear_18_25742)"/>
<rect x="11.0566" y="7.86719" width="1.92969" height="7.34375" fill="url(#paint2_radial_18_25742)"/>
<rect x="18.9941" y="7.86719" width="1.92969" height="7.34375" fill="url(#paint3_linear_18_25742)"/>
<rect x="18.9941" y="7.86719" width="1.92969" height="7.34375" fill="url(#paint4_linear_18_25742)"/>
<rect x="18.9941" y="7.86719" width="1.92969" height="7.34375" fill="url(#paint5_radial_18_25742)"/>
<path d="M8.97852 4.65625C8.97852 3.68975 9.76202 2.90625 10.7285 2.90625H21.291C22.2575 2.90625 23.041 3.68975 23.041 4.65625V5.95312C23.041 7.74805 21.5859 9.20312 19.791 9.20312H12.2285C10.4336 9.20312 8.97852 7.74805 8.97852 5.95312V4.65625Z" fill="url(#paint6_linear_18_25742)"/>
<path d="M10.9785 20.1875H13.0488L12.4577 26.455C12.4252 26.7994 12.1361 27.0625 11.7902 27.0625C11.4258 27.0625 11.1282 26.7715 11.1199 26.4073L10.9785 20.1875Z" fill="url(#paint7_radial_18_25742)"/>
<path d="M10.9785 20.1875H13.0488L12.4577 26.455C12.4252 26.7994 12.1361 27.0625 11.7902 27.0625C11.4258 27.0625 11.1282 26.7715 11.1199 26.4073L10.9785 20.1875Z" fill="url(#paint8_linear_18_25742)"/>
<g filter="url(#filter0_i_18_25742)">
<path d="M8.23918 29.3366L11.2474 20.5469H8.40369L6.64566 28.8905C6.53707 29.4059 6.93029 29.8906 7.457 29.8906C7.80888 29.8906 8.12243 29.6685 8.23918 29.3366Z" fill="#803F44"/>
<path d="M8.23918 29.3366L11.2474 20.5469H8.40369L6.64566 28.8905C6.53707 29.4059 6.93029 29.8906 7.457 29.8906C7.80888 29.8906 8.12243 29.6685 8.23918 29.3366Z" fill="url(#paint9_radial_18_25742)"/>
</g>
<path d="M21.002 20.1875H18.9316L19.5228 26.455C19.5553 26.7994 19.8444 27.0625 20.1903 27.0625C20.5546 27.0625 20.8523 26.7715 20.8606 26.4073L21.002 20.1875Z" fill="url(#paint10_radial_18_25742)"/>
<path d="M21.002 20.1875H18.9316L19.5228 26.455C19.5553 26.7994 19.8444 27.0625 20.1903 27.0625C20.5546 27.0625 20.8523 26.7715 20.8606 26.4073L21.002 20.1875Z" fill="url(#paint11_linear_18_25742)"/>
<g filter="url(#filter1_i_18_25742)">
<path d="M23.7608 29.3366L20.7526 20.5469H23.5963L25.3543 28.8905C25.4629 29.4059 25.0697 29.8906 24.543 29.8906C24.1911 29.8906 23.8776 29.6685 23.7608 29.3366Z" fill="#803F44"/>
<path d="M23.7608 29.3366L20.7526 20.5469H23.5963L25.3543 28.8905C25.4629 29.4059 25.0697 29.8906 24.543 29.8906C24.1911 29.8906 23.8776 29.6685 23.7608 29.3366Z" fill="url(#paint12_radial_18_25742)"/>
</g>
<g filter="url(#filter2_f_18_25742)">
<path d="M22.475 21.0228L23.2838 21.0226L25.0254 28.7354C25.0551 28.8671 24.9743 28.9984 24.8433 29.0312V29.0312C24.7114 29.0641 24.5775 28.985 24.5428 28.8536L22.475 21.0228Z" fill="#9D6C67"/>
</g>
<g filter="url(#filter3_f_18_25742)">
<path d="M10.3436 21.437L9.53484 21.4368L7.35698 29.0017C7.31815 29.1365 7.39893 29.2767 7.5351 29.3108V29.3108C7.66141 29.3424 7.79062 29.2709 7.83096 29.1471L10.3436 21.437Z" fill="url(#paint13_linear_18_25742)"/>
</g>
<path d="M9.49991 14.6301C9.78012 14.2257 10.2409 13.9844 10.7329 13.9844H21.1667C21.6473 13.9844 22.0987 14.2146 22.3809 14.6035L24.6015 17.6644C25.6566 19.1188 24.6176 21.1563 22.8207 21.1563H9.17914C7.40415 21.1563 6.3599 19.1624 7.37075 17.7034L9.49991 14.6301Z" fill="url(#paint14_linear_18_25742)"/>
<path d="M6.98158 18.7853C6.88978 19.9878 7.82032 21.1563 9.17921 21.1563H22.8207C24.1832 21.1563 25.1101 19.9848 25.0184 18.7843C24.9367 19.8614 24.0585 20.8282 22.8207 20.8282H9.17921C7.94459 20.8282 7.06349 19.8636 6.98158 18.7853Z" fill="#903F64"/>
<path d="M6.98158 18.7853C6.88978 19.9878 7.82032 21.1563 9.17921 21.1563H22.8207C24.1832 21.1563 25.1101 19.9848 25.0184 18.7843C24.9367 19.8614 24.0585 20.8282 22.8207 20.8282H9.17921C7.94459 20.8282 7.06349 19.8636 6.98158 18.7853Z" fill="url(#paint15_linear_18_25742)"/>
<path d="M6.98157 18.7853C7.06348 19.8636 7.94458 20.8282 9.1792 20.8282H22.8207C24.0585 20.8282 24.9366 19.8614 25.0184 18.7843" stroke="url(#paint16_linear_18_25742)" stroke-width="0.1"/>
<defs>
<filter id="filter0_i_18_25742" x="6.62756" y="20.2969" width="5.11987" height="9.59375" filterUnits="userSpaceOnUse" color-interpolation-filters="sRGB">
<feFlood flood-opacity="0" result="BackgroundImageFix"/>
<feBlend mode="normal" in="SourceGraphic" in2="BackgroundImageFix" result="shape"/>
<feColorMatrix in="SourceAlpha" type="matrix" values="0 0 0 0 0 0 0 0 0 0 0 0 0 0 0 0 0 0 127 0" result="hardAlpha"/>
<feOffset dx="0.5" dy="-0.25"/>
<feGaussianBlur stdDeviation="0.25"/>
<feComposite in2="hardAlpha" operator="arithmetic" k2="-1" k3="1"/>
<feColorMatrix type="matrix" values="0 0 0 0 0.458824 0 0 0 0 0.254902 0 0 0 0 0.286275 0 0 0 1 0"/>
<feBlend mode="normal" in2="shape" result="effect1_innerShadow_18_25742"/>
</filter>
<filter id="filter1_i_18_25742" x="20.7526" y="20.2969" width="4.86987" height="9.59375" filterUnits="userSpaceOnUse" color-interpolation-filters="sRGB">
<feFlood flood-opacity="0" result="BackgroundImageFix"/>
<feBlend mode="normal" in="SourceGraphic" in2="BackgroundImageFix" result="shape"/>
<feColorMatrix in="SourceAlpha" type="matrix" values="0 0 0 0 0 0 0 0 0 0 0 0 0 0 0 0 0 0 127 0" result="hardAlpha"/>
<feOffset dx="0.25" dy="-0.25"/>
<feGaussianBlur stdDeviation="0.25"/>
<feComposite in2="hardAlpha" operator="arithmetic" k2="-1" k3="1"/>
<feColorMatrix type="matrix" values="0 0 0 0 0.458824 0 0 0 0 0.254902 0 0 0 0 0.286275 0 0 0 1 0"/>
<feBlend mode="normal" in2="shape" result="effect1_innerShadow_18_25742"/>
</filter>
<filter id="filter2_f_18_25742" x="21.8751" y="20.4226" width="3.7564" height="9.21599" filterUnits="userSpaceOnUse" color-interpolation-filters="sRGB">
<feFlood flood-opacity="0" result="BackgroundImageFix"/>
<feBlend mode="normal" in="SourceGraphic" in2="BackgroundImageFix" result="shape"/>
<feGaussianBlur stdDeviation="0.3" result="effect1_foregroundBlur_18_25742"/>
</filter>
<filter id="filter3_f_18_25742" x="6.74729" y="20.8368" width="4.19634" height="9.08147" filterUnits="userSpaceOnUse" color-interpolation-filters="sRGB">
<feFlood flood-opacity="0" result="BackgroundImageFix"/>
<feBlend mode="normal" in="SourceGraphic" in2="BackgroundImageFix" result="shape"/>
<feGaussianBlur stdDeviation="0.3" result="effect1_foregroundBlur_18_25742"/>
</filter>
<linearGradient id="paint0_linear_18_25742" x1="11.3691" y1="11.5391" x2="12.6191" y2="11.5391" gradientUnits="userSpaceOnUse">
<stop stop-color="#7D4240"/>
<stop offset="1" stop-color="#905B58"/>
</linearGradient>
<linearGradient id="paint1_linear_18_25742" x1="11.0566" y1="12.7969" x2="11.5879" y2="12.7969" gradientUnits="userSpaceOnUse">
<stop stop-color="#6F4239"/>
<stop offset="1" stop-color="#6F4239" stop-opacity="0"/>
</linearGradient>
<radialGradient id="paint2_radial_18_25742" cx="0" cy="0" r="1" gradientUnits="userSpaceOnUse" gradientTransform="translate(12.291 8.67188) rotate(95.4119) scale(1.49102 3.6804)">
<stop offset="0.252554" stop-color="#4C1D28"/>
<stop offset="1" stop-color="#7A4145" stop-opacity="0"/>
</radialGradient>
<linearGradient id="paint3_linear_18_25742" x1="19.3066" y1="11.5391" x2="20.5566" y2="11.5391" gradientUnits="userSpaceOnUse">
<stop stop-color="#7D4240"/>
<stop offset="0.8125" stop-color="#905B58"/>
</linearGradient>
<linearGradient id="paint4_linear_18_25742" x1="18.9941" y1="12.7969" x2="19.5254" y2="12.7969" gradientUnits="userSpaceOnUse">
<stop stop-color="#6F4239"/>
<stop offset="1" stop-color="#6F4239" stop-opacity="0"/>
</linearGradient>
<radialGradient id="paint5_radial_18_25742" cx="0" cy="0" r="1" gradientUnits="userSpaceOnUse" gradientTransform="translate(19.7598 8.5625) rotate(78.3664) scale(1.62718 4.01648)">
<stop offset="0.332503" stop-color="#4C1D28"/>
<stop offset="1" stop-color="#7A4145" stop-opacity="0"/>
</radialGradient>
<linearGradient id="paint6_linear_18_25742" x1="16.0098" y1="2.90625" x2="16.0098" y2="9.20312" gradientUnits="userSpaceOnUse">
<stop stop-color="#925253"/>
<stop offset="1" stop-color="#9D5C5A"/>
</linearGradient>
<radialGradient id="paint7_radial_18_25742" cx="0" cy="0" r="1" gradientUnits="userSpaceOnUse" gradientTransform="translate(11.8379 26.5) rotate(-86.367) scale(5.91814 3.47947)">
<stop stop-color="#602E49"/>
<stop offset="1" stop-color="#3E1531"/>
</radialGradient>
<linearGradient id="paint8_linear_18_25742" x1="10.9785" y1="22.4531" x2="11.8066" y2="22.4844" gradientUnits="userSpaceOnUse">
<stop stop-color="#554344"/>
<stop offset="1" stop-color="#554344" stop-opacity="0"/>
</linearGradient>
<radialGradient id="paint9_radial_18_25742" cx="0" cy="0" r="1" gradientUnits="userSpaceOnUse" gradientTransform="translate(9.94909 20.5469) rotate(110.368) scale(2.90644 4.6918)">
<stop offset="0.388902" stop-color="#531C30"/>
<stop offset="1" stop-color="#804044" stop-opacity="0"/>
</radialGradient>
<radialGradient id="paint10_radial_18_25742" cx="0" cy="0" r="1" gradientUnits="userSpaceOnUse" gradientTransform="translate(20.1426 26.5) rotate(-93.633) scale(5.91814 3.47947)">
<stop stop-color="#602E49"/>
<stop offset="1" stop-color="#3E1531"/>
</radialGradient>
<linearGradient id="paint11_linear_18_25742" x1="21.002" y1="22.4531" x2="20.1738" y2="22.4844" gradientUnits="userSpaceOnUse">
<stop stop-color="#554344"/>
<stop offset="1" stop-color="#554344" stop-opacity="0"/>
</linearGradient>
<radialGradient id="paint12_radial_18_25742" cx="0" cy="0" r="1" gradientUnits="userSpaceOnUse" gradientTransform="translate(21.6268 20.7861) rotate(67.1412) scale(2.18353 3.52482)">
<stop offset="0.282632" stop-color="#531C30"/>
<stop offset="1" stop-color="#804044" stop-opacity="0"/>
</radialGradient>
<linearGradient id="paint13_linear_18_25742" x1="7.46375" y1="28.9321" x2="9.79132" y2="20.8248" gradientUnits="userSpaceOnUse">
<stop offset="0.487259" stop-color="#9D6C67"/>
<stop offset="1" stop-color="#9D6C67" stop-opacity="0"/>
</linearGradient>
<linearGradient id="paint14_linear_18_25742" x1="16" y1="13.9844" x2="16" y2="21.1563" gradientUnits="userSpaceOnUse">
<stop offset="0.220044" stop-color="#8A4C40"/>
<stop offset="0.877996" stop-color="#9B5C4C"/>
</linearGradient>
<linearGradient id="paint15_linear_18_25742" x1="6.97534" y1="19.9703" x2="9.68164" y2="19.9703" gradientUnits="userSpaceOnUse">
<stop stop-color="#825257"/>
<stop offset="1" stop-color="#825257" stop-opacity="0"/>
</linearGradient>
<linearGradient id="paint16_linear_18_25742" x1="3.40039" y1="20.6262" x2="26.9316" y2="20.6262" gradientUnits="userSpaceOnUse">
<stop offset="0.136122" stop-color="#AF736C" stop-opacity="0"/>
<stop offset="0.420601" stop-color="#AF736C"/>
<stop offset="0.805445" stop-color="#AF736C"/>
<stop offset="0.90073" stop-color="#AF736C" stop-opacity="0"/>
</linearGradient>
</defs>
</svg>

<svg width="100%" height="100%" viewBox="0 0 32 32" xmlns="http://www.w3.org/2000/svg"><path fill="url(#a)" d="M11.057 7.867h1.93v7.344h-1.93z"/><path fill="url(#b)" d="M11.057 7.867h1.93v7.344h-1.93z"/><path fill="url(#c)" d="M11.057 7.867h1.93v7.344h-1.93z"/><path fill="url(#d)" d="M18.994 7.867h1.93v7.344h-1.93z"/><path fill="url(#e)" d="M18.994 7.867h1.93v7.344h-1.93z"/><path fill="url(#f)" d="M18.994 7.867h1.93v7.344h-1.93z"/><path fill="url(#g)" d="M8.979 4.656c0-.966.783-1.75 1.75-1.75H21.29c.966 0 1.75.784 1.75 1.75v1.297a3.25 3.25 0 0 1-3.25 3.25h-7.562a3.25 3.25 0 0 1-3.25-3.25z"/><path fill="url(#h)" d="M10.979 20.188h2.07l-.591 6.267a.67.67 0 0 1-1.338-.048z"/><path fill="url(#i)" d="M10.979 20.188h2.07l-.591 6.267a.67.67 0 0 1-1.338-.048z"/><g filter="url(#j)"><path fill="#803F44" d="m8.24 29.337 3.007-8.79H8.404L6.646 28.89a.83.83 0 0 0 1.593.447"/><path fill="url(#k)" d="m8.24 29.337 3.007-8.79H8.404L6.646 28.89a.83.83 0 0 0 1.593.447"/></g><path fill="url(#l)" d="M21.002 20.188h-2.07l.59 6.267a.67.67 0 0 0 1.339-.048z"/><path fill="url(#m)" d="M21.002 20.188h-2.07l.59 6.267a.67.67 0 0 0 1.339-.048z"/><g filter="url(#n)"><path fill="#803F44" d="m23.76 29.337-3.007-8.79h2.843l1.758 8.343a.83.83 0 0 1-1.593.447"/><path fill="url(#o)" d="m23.76 29.337-3.007-8.79h2.843l1.758 8.343a.83.83 0 0 1-1.593.447"/></g><g filter="url(#p)"><path fill="#9D6C67" d="M22.475 21.023h.809l1.741 7.712a.249.249 0 0 1-.483.118z"/></g><g filter="url(#q)"><path fill="url(#r)" d="M10.344 21.437h-.81l-2.177 7.565a.248.248 0 0 0 .474.145z"/></g><path fill="url(#s)" d="M9.5 14.63a1.5 1.5 0 0 1 1.233-.646h10.434c.48 0 .932.23 1.214.62l2.22 3.06c1.056 1.455.017 3.492-1.78 3.492H9.179c-1.775 0-2.82-1.994-1.808-3.453z"/><path fill="#903F64" d="M6.982 18.785c-.092 1.203.838 2.371 2.197 2.371h13.642c1.362 0 2.29-1.171 2.197-2.372-.081 1.077-.96 2.044-2.197 2.044H9.179c-1.234 0-2.116-.964-2.197-2.043"/><path fill="url(#t)" d="M6.982 18.785c-.092 1.203.838 2.371 2.197 2.371h13.642c1.362 0 2.29-1.171 2.197-2.372-.081 1.077-.96 2.044-2.197 2.044H9.179c-1.234 0-2.116-.964-2.197-2.043"/><path stroke="url(#u)" stroke-width=".1" d="M6.982 18.785c.081 1.079.963 2.043 2.197 2.043h13.642c1.237 0 2.116-.967 2.197-2.044"/><defs><linearGradient id="a" x1="11.369" x2="12.619" y1="11.539" y2="11.539" gradientUnits="userSpaceOnUse"><stop stop-color="#7D4240"/><stop offset="1" stop-color="#905B58"/></linearGradient><linearGradient id="b" x1="11.057" x2="11.588" y1="12.797" y2="12.797" gradientUnits="userSpaceOnUse"><stop stop-color="#6F4239"/><stop offset="1" stop-color="#6F4239" stop-opacity="0"/></linearGradient><linearGradient id="d" x1="19.307" x2="20.557" y1="11.539" y2="11.539" gradientUnits="userSpaceOnUse"><stop stop-color="#7D4240"/><stop offset=".813" stop-color="#905B58"/></linearGradient><linearGradient id="e" x1="18.994" x2="19.525" y1="12.797" y2="12.797" gradientUnits="userSpaceOnUse"><stop stop-color="#6F4239"/><stop offset="1" stop-color="#6F4239" stop-opacity="0"/></linearGradient><linearGradient id="g" x1="16.01" x2="16.01" y1="2.906" y2="9.203" gradientUnits="userSpaceOnUse"><stop stop-color="#925253"/><stop offset="1" stop-color="#9D5C5A"/></linearGradient><linearGradient id="i" x1="10.979" x2="11.807" y1="22.453" y2="22.484" gradientUnits="userSpaceOnUse"><stop stop-color="#554344"/><stop offset="1" stop-color="#554344" stop-opacity="0"/></linearGradient><linearGradient id="m" x1="21.002" x2="20.174" y1="22.453" y2="22.484" gradientUnits="userSpaceOnUse"><stop stop-color="#554344"/><stop offset="1" stop-color="#554344" stop-opacity="0"/></linearGradient><linearGradient id="r" x1="7.464" x2="9.791" y1="28.932" y2="20.825" gradientUnits="userSpaceOnUse"><stop offset=".487" stop-color="#9D6C67"/><stop offset="1" stop-color="#9D6C67" stop-opacity="0"/></linearGradient><linearGradient id="s" x1="16" x2="16" y1="13.984" y2="21.156" gradientUnits="userSpaceOnUse"><stop offset=".22" stop-color="#8A4C40"/><stop offset=".878" stop-color="#9B5C4C"/></linearGradient><linearGradient id="t" x1="6.975" x2="9.682" y1="19.97" y2="19.97" gradientUnits="userSpaceOnUse"><stop stop-color="#825257"/><stop offset="1" stop-color="#825257" stop-opacity="0"/></linearGradient><linearGradient id="u" x1="3.4" x2="26.932" y1="20.626" y2="20.626" gradientUnits="userSpaceOnUse"><stop offset=".136" stop-color="#AF736C" stop-opacity="0"/><stop offset=".421" stop-color="#AF736C"/><stop offset=".805" stop-color="#AF736C"/><stop offset=".901" stop-color="#AF736C" stop-opacity="0"/></linearGradient><radialGradient id="c" cx="0" cy="0" r="1" gradientTransform="rotate(95.412 2.2 9.927)scale(1.49102 3.6804)" gradientUnits="userSpaceOnUse"><stop offset=".253" stop-color="#4C1D28"/><stop offset="1" stop-color="#7A4145" stop-opacity="0"/></radialGradient><radialGradient id="f" cx="0" cy="0" r="1" gradientTransform="rotate(78.366 4.627 16.402)scale(1.62718 4.01648)" gradientUnits="userSpaceOnUse"><stop offset=".333" stop-color="#4C1D28"/><stop offset="1" stop-color="#7A4145" stop-opacity="0"/></radialGradient><radialGradient id="h" cx="0" cy="0" r="1" gradientTransform="matrix(.375 -5.90625 3.47248 .22048 11.838 26.5)" gradientUnits="userSpaceOnUse"><stop stop-color="#602E49"/><stop offset="1" stop-color="#3E1531"/></radialGradient><radialGradient id="k" cx="0" cy="0" r="1" gradientTransform="rotate(110.368 -2.17 13.733)scale(2.90644 4.6918)" gradientUnits="userSpaceOnUse"><stop offset=".389" stop-color="#531C30"/><stop offset="1" stop-color="#804044" stop-opacity="0"/></radialGradient><radialGradient id="l" cx="0" cy="0" r="1" gradientTransform="matrix(-.375 -5.90625 3.47248 -.22048 20.143 26.5)" gradientUnits="userSpaceOnUse"><stop stop-color="#602E49"/><stop offset="1" stop-color="#3E1531"/></radialGradient><radialGradient id="o" cx="0" cy="0" r="1" gradientTransform="matrix(.84822 2.01205 -3.248 1.36926 21.627 20.786)" gradientUnits="userSpaceOnUse"><stop offset=".283" stop-color="#531C30"/><stop offset="1" stop-color="#804044" stop-opacity="0"/></radialGradient><filter id="j" width="5.12" height="9.594" x="6.628" y="20.297" color-interpolation-filters="sRGB" filterUnits="userSpaceOnUse"><feFlood flood-opacity="0" result="BackgroundImageFix"/><feBlend in="SourceGraphic" in2="BackgroundImageFix" result="shape"/><feColorMatrix in="SourceAlpha" result="hardAlpha" values="0 0 0 0 0 0 0 0 0 0 0 0 0 0 0 0 0 0 127 0"/><feOffset dx=".5" dy="-.25"/><feGaussianBlur stdDeviation=".25"/><feComposite in2="hardAlpha" k2="-1" k3="1" operator="arithmetic"/><feColorMatrix values="0 0 0 0 0.458824 0 0 0 0 0.254902 0 0 0 0 0.286275 0 0 0 1 0"/><feBlend in2="shape" result="effect1_innerShadow_18_25742"/></filter><filter id="n" width="4.87" height="9.594" x="20.753" y="20.297" color-interpolation-filters="sRGB" filterUnits="userSpaceOnUse"><feFlood flood-opacity="0" result="BackgroundImageFix"/><feBlend in="SourceGraphic" in2="BackgroundImageFix" result="shape"/><feColorMatrix in="SourceAlpha" result="hardAlpha" values="0 0 0 0 0 0 0 0 0 0 0 0 0 0 0 0 0 0 127 0"/><feOffset dx=".25" dy="-.25"/><feGaussianBlur stdDeviation=".25"/><feComposite in2="hardAlpha" k2="-1" k3="1" operator="arithmetic"/><feColorMatrix values="0 0 0 0 0.458824 0 0 0 0 0.254902 0 0 0 0 0.286275 0 0 0 1 0"/><feBlend in2="shape" result="effect1_innerShadow_18_25742"/></filter><filter id="p" width="3.756" height="9.216" x="21.875" y="20.423" color-interpolation-filters="sRGB" filterUnits="userSpaceOnUse"><feFlood flood-opacity="0" result="BackgroundImageFix"/><feBlend in="SourceGraphic" in2="BackgroundImageFix" result="shape"/><feGaussianBlur result="effect1_foregroundBlur_18_25742" stdDeviation=".3"/></filter><filter id="q" width="4.196" height="9.081" x="6.747" y="20.837" color-interpolation-filters="sRGB" filterUnits="userSpaceOnUse"><feFlood flood-opacity="0" result="BackgroundImageFix"/><feBlend in="SourceGraphic" in2="BackgroundImageFix" result="shape"/><feGaussianBlur result="effect1_foregroundBlur_18_25742" stdDeviation=".3"/></filter></defs></svg>
